brandFactory_export/1.Light/Archivador_1Light.svg

<?xml version="1.0" encoding="UTF-8"?>
<svg width="24px" height="24px" viewBox="0 0 24 24" version="1.1" xmlns="http://www.w3.org/2000/svg" xmlns:xlink="http://www.w3.org/1999/xlink">
    <title>1.Light/Archivador_1Light</title>
    <g id="Symbols" stroke="none" stroke-width="1" fill="none" fill-rule="evenodd">
        <g id="1.Light/Archivador_1Light" fill="#5CB615" fill-rule="nonzero">
            <path d="M22.6386555,22.1142857 C22.6386555,22.4033613 22.4067227,22.6386555 22.1176471,22.6386555 L1.50588235,22.6386555 C1.22352941,22.6386555 0.98487395,22.4 0.98487395,22.1142857 L0.98487395,13.3546218 C0.98487395,13.0756303 1.22352941,12.8403361 1.50588235,12.8403361 L8.59831933,12.8403361 L8.59831933,13.4117647 C8.59831933,15.1193277 9.98655462,16.507563 11.6941176,16.507563 L11.9294118,16.507563 C13.6369748,16.507563 15.0285714,15.1193277 15.0285714,13.4117647 L15.0285714,12.8403361 L22.1210084,12.8403361 C22.3663866,12.8403361 22.5747899,13.0084034 22.6252101,13.2302521 L22.6319328,13.2705882 C22.6352941,13.297479 22.6420168,13.3243697 22.6420168,13.3546218 L22.6420168,22.1142857 L22.6386555,22.1142857 Z M2.95462185,1.50588235 C2.95462185,1.22016807 3.18655462,0.98487395 3.47226891,0.98487395 L20.1512605,1.00504202 C20.4537815,1.00504202 20.7193277,1.27394958 20.7831933,1.64369748 L22.410084,11.9058824 C22.312605,11.8857143 22.2184874,11.8554622 22.1142857,11.8554622 L14.5344538,11.8554622 C14.2621849,11.8554622 14.0436975,12.0739496 14.0436975,12.3495798 L14.0436975,13.4151261 C14.0436975,14.5781513 13.0957983,15.5260504 11.9294118,15.5260504 L11.6941176,15.5260504 C10.5277311,15.5260504 9.57983193,14.5781513 9.57983193,13.4151261 L9.57983193,12.3495798 C9.57983193,12.0773109 9.35798319,11.8554622 9.08907563,11.8554622 L1.50588235,11.8554622 C1.40504202,11.8554622 1.31092437,11.8655462 1.21680672,11.8857143 L2.95462185,1.50588235 Z M23.6134454,13.2638655 C23.6134454,13.2436975 23.6201681,13.2268908 23.6168067,13.2067227 L23.5966387,13.0689076 L23.5966387,13.0588235 L23.5966387,13.0554622 L21.7613445,1.4789916 C21.6033613,0.618487395 20.9445378,0.0201680672 20.1579832,0.0201680672 L3.4789916,0 C2.65210084,0 1.97647059,0.675630252 1.98319328,1.42521008 L0.0168067227,13.1226891 C0.0100840336,13.1529412 0.0201680672,13.1831933 0.0201680672,13.2134454 C0.0168067227,13.2605042 0.00672268908,13.307563 0.00672268908,13.3546218 L0.00672268908,22.1142857 C0.00672268908,22.9478992 0.682352941,23.6235294 1.51260504,23.6235294 L22.1277311,23.6235294 C22.9546218,23.6235294 23.6302521,22.9478992 23.6302521,22.1142857 L23.6302521,13.3546218 C23.6235294,13.3277311 23.6168067,13.2941176 23.6134454,13.2638655 Z" id="Archivador_1Light"></path>
        </g>
    </g>
</svg>

<svg width="24" height="24" viewBox="0 0 24 24" xmlns="http://www.w3.org/2000/svg"><path d="M22.639 22.114c0 .29-.232.525-.521.525H1.506a.529.529 0 01-.521-.525v-8.76c0-.278.239-.514.52-.514h7.093v.572a3.099 3.099 0 003.096 3.096h.235c1.708 0 3.1-1.389 3.1-3.096v-.572h7.092c.245 0 .454.168.504.39l.007.04c.003.027.01.054.01.085v8.76h-.003zM2.955 1.506a.52.52 0 01.517-.521l16.68.02c.302 0 .567.269.631.639l1.627 10.262c-.097-.02-.192-.05-.296-.05h-7.58a.49.49 0 00-.49.494v1.065c0 1.163-.948 2.111-2.115 2.111h-.235a2.115 2.115 0 01-2.114-2.11V12.35a.494.494 0 00-.49-.495H1.505c-.101 0-.195.01-.29.03l1.739-10.38zm20.658 11.758c0-.02.007-.037.004-.057l-.02-.138v-.014L21.76 1.48C21.603.619 20.945.02 20.158.02L3.479 0c-.827 0-1.503.676-1.496 1.425L.017 13.123c-.007.03.003.06.003.09-.003.048-.013.095-.013.142v8.76c0 .833.675 1.509 1.506 1.509h20.615c.827 0 1.502-.676 1.502-1.51v-8.76a.725.725 0 01-.017-.09z" fill="#5CB615" fill-rule="nonzero"/></svg>
